X:1
T:William Byrd c.1540 - 1623
T:Mass for three voices
%%score [ 1 2 3 ]
L:1/8
Q:1/4=200
M:4/2
K:C
V:1 treble nm="Cantus" snm="Cantus"
V:2 treble nm="Tenor" snm="Tenor"
V:3 treble nm="Bassus" snm="Bassus"
V:1
 x2"^Q""^:" x2 ||[K:F]"^Kyrie eleison" A12 A4 | G4 A4 B4 A2 G2 | A8 A8 | G4 A4 B4 A2 G2 | %5
w: |Ky- ri-|e~ e- lei- * *|son.~ Chri-|ste~ e- lei- * *|
w: |||||
[M:4/2] A8 c6 c2 | B4 A8 G8 | F2 E2 F2 D2 F8 x4 | E2 D2"^-" x8 x4 |[M:4/4] z18 | %10
w: son. Ky- ri-|e e- lei-||||
w: |||||
[M:4/2] x2"^Q""^:" x2 | A12 A4 | G4 B4 A4 F4 | A6 A2 G8 |[M:4/2] F6 A2 G2 F2 F8 | E4 F4 F6 G2 | %16
w: |Et in|ter- ra pax ho-|mi- ni- bus|bo- næ vo- lun- ta-|* tis, bo- næ|
w: ||||||
 A2 F2 B8 A8 | z4 A4 A4 G4 | ^F8 x8 | z4"^(  )" F4 G4 A6 | B2 G4 A8 c8 | B4 A8 G4 | %22
w: vo- lun- ta- tis.|Lau- da- mus|te,|be- ne- di-|ci- mus te, ad-|o- ra- mus|
w: ||||||
 F4 z2 D2 E4 F4 | G4 E4 x4 | D8 z4 z2 F2 | G4 A4 B8 x4 | G8 A8 | z4 A6 A2 A4 x2 | G6 A2 F4 A8 | %29
w: te, glo- ri- fi-|ca- mus|te, glo
-|ri- fi- ca-|mus te,|Gra- ti- as|a- gi~- ~mus ti-|
w: |||||||
 G4 F4 E4 | D4 C4 G6 F2 x4 | E4 F4 E4 D4 | ^C4 F4 E8 x12 | z4 F6 G2 A4 | B8 A8 | F4 G4 A6 B2 x2 | %36
w: bi pro~- ~pter~|ma- gnam glo- ri-|am tu- * *|* * am,|Do- mi- ne|De- us,|rex cæ- le- *|
w: |||||||
 c4 F4 B8 x6 | A8 z4 F8 | G4 A6 G2 F2 E2 x2 | F2 E2 D2 C2 D4 x4 | ^C8 z8 x2 | %41
w: |stis, rex|cæ- le- * * *||stis,|
w: |||||
"^(  )" c6 B2 A4 G4 x2 | A4 F8 E4 x4 | F16 | z4 D6 E2 F4 | G8 D4 F4 x2 | D4 G6 G2 F4 x2 | %47
w: De- us pa- ter|o- mni- po-|tens.|Do- mi- ne|fi- li u-|ni ge- ni- te,|
w: ||||||
 B8 A4 c8 | F4 A8 x6 | E4 G6 F2 E2 D2 x4 | C4 c8 F4 | A6 G2 F2 E2 F4 x4 | E8"F#" x16 || z16 x4 | %54
w: Je- su Chri-|ste, Je-|su~ Chri- * * *|ste, Je- su|Chri- * * * *|||
w: |||||||
 z16 x4 | z16 x4 | z16 x6 | z16 x6 | z8 z4 F4 | A4 G2 F2 A4 G8 | F4 B8 A8 | z8 z4 A8 | G4 x16 | %63
w: ||||Qui|tol- lis pec- ca- ta|mun
- * di,|mi-|se-|
w: |||||||||
 F4 E2 E4 F2 D4 | C8 z4 c8 | B4 A4 G2 G4 A2 | F4 E8 x8 | z4 E4 A6 A2 | F4 B8 A4 | G8 A8 | %70
w: re- re no- * *|bis, mi-|se- re- re no- *|* bis:|Qui tol- lis|pec- ca- ta|mun- di,|
w: |||||||
 z4 A6 E2 F4 | E4 A,4 C4 D4 x4 | F6 E2 D4 C4 | z4 c6 F2 B4 | A6 F2 A6 G2 | F4 E4 D4 C6 x2 | %76
w: su- sci- pe|de- pre- ca- ti-|o- nem no- stram,|su- sci- pe|de- pre- ca- ti-|o- nem no- *|
w: ||||||
 =B,A, B,4 C8 z4 | E4 G8 C8 | z4 E4 x12 | A6 A2 G4 c8 | F2 G2 A2 B2 A8 x8 | G4 A8 G6 | %82
w: * * * tram.|Qui se- des|ad|dex- te- ram pa-||* tris, mi-|
w: ||||||
 F2 E4 D4 x8 | E8 D4 B8 | A4 G4 ^F4 G8 | ^F8 z4 A8 | A4 A4 F4 F4 | F4 x12 | D8 D4 F4 | %89
w: se- re- re|no- bis, mi-|se- re- re no-|bis. Quo-|ni- am tu so-|lus|san- ctus, tu|
w: |||||||
 E4 C4 D6 D2 | C8 z4 B4 | A4 F4 G6 G2 | F8 z4 E4 x4 | G6 G2 A4 c6 | B2 A2 G2 F4 A4 G8 | %95
w: so- lus Do- mi-|nus, tu|so- lus Do- mi-|nus, tu|so- lus al- tis-|si- * * * * mus,|
w: ||||||
 z4 D4 A6 A2 x4 | B4 d6 c2 B2 A2 | G4 c8 A4 | B8 x8 | A16 x2 | z4 G4 F4 D4 | A6 A2 G8 | %102
w: tu so- lus|al- tis- si- * *|mus,~ ~Je- su|Chri-|ste:|Cum~ ~san~- ~cto|spi- ri- tu|
w: |||||||
 z8 z4 E4 x2 | G6 F2 E4 x4- x2 | x4 G4 F4 B4 | A8 z8 x4 | z4 A4 c6 B2 | A4 G6 F2 F6 | %108
w: in|glo- ri- a De-|i pa- *|tris,|in glo- ri-|a De- i pa-|
w: ||||||
 ED E4 x8- x2 | x8 F16 | F8 z4 D6 | E2 F2 G2 A4 B8 | A2 G2"^-" x16 |] z18 | %114
w: * * * tris.\_\_\_|A-|men. A-||||
w: ||||||
[M:4/2] x2"^Q""^:" x2 x12 | z16 | A8 A4 F4 | G4 A4 B8 | A8 z4 G4 x4 |[M:4/2] A4 F4 A6 B2 x4 | %120
w: ||Pa- trem o-|mni po- ten-|tem, fa-|cto- rem cæ- li|
w: ||||||
 A4 G6 F2 F8 | E4 F16 x2 | z8 z4 G4 | A4 c4 x12 | B4 A8 G4 x4 | A8 z4 A8 | G4 F6 E2 F4 | D4 C4 G8 | %128
w: et ter- * *|* ræ,|et|in vi-|si- bi- li-|um. Et|in u- num Do-|mi- num Je-|
w: ||||||||
 A4 B8 x6 | A8 c6 c2 | B4 A8 G4 | A4 F4 E6 G2 | ^F8 z4"^(  )" =F8 | G8 A8 | F4 E8 D4 | G8 A4 c6 | %136
w: sum Chri-|stum, fi- li-|um De- i|u- ni- ge- ni-|tum. Et|ex pa-|tre na- tum|an- te o-|
w: |||
 * * *|||||
 c2 B4 A8 G4 | A8 x8 | z4 F4 A4 G4 | F8 E8 | D4 G6 F2 F8 | E4 F8 F8 | E4 F2 G2 A8 | G8 x8 | %144
w: mni~- ~a sae- cu-|la.|De- um de|De- o,|lu~- ~men de lu-|mi- ne, De-|um ve- * *|rum,|
w: ||||||||
 z4 B4 A4 F4 | c6 BA G2 F2 G4 | A8 z8 x2 | F6 E2 D4 C4 x2 | F8 D8 | z4 G6 F2 G2 A2 x2 | %150
w: de De- o|ve- * * * * *|ro,|ge- ni~- ~tum~ ~non|fa- ctum|con- sub~- ~stan~- ~ti-|
w: ||||||
 B4 A4 F8 x6 | E8 z8 x4 | z16 | z4 A4 B4 c6 | B2 A4 G4 F8 x2 | E4"F" x16 || C8 D4 E4 x2 | %157
w: a- lem pa-|tri,||per~ ~quem o-|mni~- ~a fa- cta||Qui pro- pter|
w: |||||||
 F4 G6 E2 C4 x2 | z4 G4 A4 D4 | G8 F8 | E4 F2 E2 D2 C2 x4- x4 | x4 C4 z4 A4 x4 | F8 E8 x2 | %163
w: nos ho- mi- nes,|et pro- pter|no- stram|sa- lu- * * * *|tem, de-|scen- dit,|
w: ||||||
 z8 z4 F4 | D8 C4 z4 | F4 c6 B2 G2 A2 | B2 c2 d2 c2 B2 A2 G4 | A8 F8 x4 | F4 F4 G12 | G4 F8 x6 | %170
w: de-|scen- dit|de cae- * * *||lis. Et|in- car- na-|tus est|
w: 
|||||||
 F4 B6 B2 A6 x2 | G2 G8 ^F4 G8 | z4 F4 G4 A8 | G4 A4 B8 x4 | A4 x16 | B8 G4 A6 | F2 G6 F2 F8 x6 | %177
w: de spi- ri- tu|san- * * cto,|ex Ma- ri-|* a vir-|gi-|ne, et ho-|mo fa- * *|
w: |
 * * *||||||
 E4 F8 z4 x4 | c8 B4 A4 | F4 z4 G6 F2 | F8 E4 x4 | F8 C8 | z4 D4 F6 G2 | A4 B4 A8 x4 | A,8 z4 A8 | %185
w: ctus est.|Cru- ci- fi-|xus e- ti-|am pro|no- bis,|sub Pon- ti-|o Pi- la-|to, pas-|
w: |||||||* 
|
 G4 F4 B4 x6 | A6 A2 D4 C6 | D2 E4 F6 D2 E8 | z4 F4 A4 B4 x6 | c4 F4 x8 | z4 A6 G2 A4 | %191
w: sus et se-|pul- tus est, et|* se- pul- tus est.|Et re- sur-|re- xit|ter- ti- a|
w: ||||||
 F2 G2 A4 F8 | z4 E4 D4 E2 F2 | G8 G,8 x8 | z4 G4 E4 F2 G2 | A8 F4 G2 A2 x4 | B8 A8 x4 | %197
w: di- * * e,|se- cun~- ~dum~ ~scri-|ptu- ras,|se- cun~- ~dum~ ~~scri-|ptu- ras, scri- *|ptu- ras.|
w: ||||||
 C6 D2 E4 F2 G2 | A2 B2 c8 B4 | A16 | z4 G4 E4 A4 | G6 G2 C4 F8 | E4 F4 F6 E2 x4 | F2 G2 A8 G8 | %204
w: Et a- scen- dit in|cæ- * * *|lum,|se- det ad|dex- te- ram pa-|* tris, pa- *||
w: |||
 * *||||
 ^F8 x8 | z4"^(  )" F4 F6 F2 | G4 A4 B4 G4 | A8 z4 A4 x2 | G6 G2 G8 x4 | F4 E4 D8 | C8 z4 c4 | %211
w: tris.|Et i- te-|rum ven- tu- rus|est cum|glo- ri- a,|ju- di- ca-|re vi-|
w: ||* 
 * *|||||
 B4 A4 F6 G2 x2 | E8 z4 E6 | F2 G4 A8 G8 | z8 x8 | z4 c4 A4 B4 | c8 F4 z4 x4 | z4 F4 D6 E2 x6 | %218
w: vos et mor- tu-|os, cu|* jus re- gni||non e- rit|fi- nis,|non e- rit|
w: |* 
||||||
 F8"C" x8- | x8 x12 || z16 x4 | z16 | z16 | z16 | z16 | z16 | z16 | z16 x4 | z16 x4 | z16 x4 | %230
w: fi- nis.||||||||||||
w: ||||||||||||
 z16 x8 | z8 z4 G8 | B4 A8 G8 | G4 F8 E4 x4 | D4 G8 E4 | F4 G4 A8 x4 | F4 G4 x8 | A4 B4 G4 A4 | %238
w: |Qui|cum pa- tre|et fi- li-|o si- mul|ad- o- ra-|tur, et|con- glo- ri- fi\-
|
w: ||||||||
 B8 A4 D8 | ^C4 D6 E2 F8 | E8 z4 A8 | G4 C4 F4 E8 | z4 G8 F4 | B6 A2 G8 | ^F8 z4"^(  )" =F4 | %245
w: ca- tur, con-|glo- ri- fi- ca-|tur, qui|lo- cu- tus est|per Pro\-
|phe- * *|tas. Et|
w: |||||||
 A8 G8 x2 | z4 G6 A2 B4 | A8 z4 c4 | B6 A2 G4 A4 | G6 F2 E4 E4 | F4 G4 A6 G2 | F4 E4 D6 D2 x4 | %252
w: u- nam|san- * *|ctam Ca-|tho- li- cam,~ ~Ca\-
|tho- li- cam et|A- po- sto- li-|cam Ec- cle- si-|
w: |||||||
 C8 z4 G4 x4 | A4 B4 c6 B2 | A4 G4 F6 G2 x4 | E8 z4 E4 x4 | A6 A2 D4 B8 | A8 G4 c6 | %258
w: am, et|A- po- sto- li\-
|cam Ec- cle- si-|am. Con-|fi- te- or u-|num bap- ti-|
w: ||||||
 B2 A2 G2 A8 G4 x2 | A8 x8 | z4 A4 G4 F8 | G4 B4 A4 D6 x2 | E2 F4 E4 D8 | C8 x12 | A4 B4 c8 | %265
w: |sma
|in re- mis-|si- o- nem pec-|ca- to- * *|rum.|Et ex- spe-|
w: |||||||
 G8 G6 A2 x2 | B2 c2 d4 c4 B6 | A2 F8 G8 | F6 E2 C4 x12 | D8 z4 E4 | G4 A2 B2 c8 | A4 c8 B4 | A16 | %273
w: cto re- sur-|re- cti- o- nem,~ ~mor-|tu- o- rum,|mor- tu- o-|rum, et|vi- tam ven- tu-|ri sæ- cu-|li,|
w: ||||||||
 z8 z4 D4 x4 | F4 G2 A2 B8 x2 | A4 A6 G2 G8 x8 | F4 E8 x4 | F16 | F8 z4 F6 x2 | %279
w: et
|vi- tam ven- tu-|ri sæ- cu- *|* li.|A-|men, A-|
w: ||||||
 G2 A2 B2 c4 F4"A" x16 |] x2"^Q""^:" x2 x12 |"^Sanctus""^-" x16- | x16 x4 | x12 x4 x12 | %284
w: ||San-|||
w: |||||
[M:4/2] G8 G6 F2 | E2 D2 C4 G4 A6 | G2 A2 =B2 c12 | =B4 c8 z8 |"^(  )" B6 A2 x8 | G4 F4 G4 A6 | %290
w: ctus, San *|||* ctus,|San- *||
w: ||||||
 G2 A2 F2 G4 F4 E4 | F8 E4 F8 x10 | c6 c2 B4 A8 | G4 F8 E4 | D4 x12 | F8 c6 c2 | B4 A6 F2 A6 | %297
w: |* * ctus.|Do- mi- nus De-|us Sa- ba-||oth, Do- mi|nus De- us Sa-|
w: |||||||
 D2 G4"^-" x8 x6 || z4 A4 F4 D4 x2 | B8 B4 A4 x4 | G4 F4 E8 | z4 A4 F4 D4 x4 | B8 B4 A4 x6 | %303
w: ba *|Ple- ni sunt|cæ- li et|ter- * ra,|ple- ni sunt|cæ- li et|
w: ||||||
 G8 ^F4 z2"^(  )" =F4 | A2 G4 A4 G4 x2 | z4 A6 c2 =B4 | c4 A4 z4 C6 | F2 E4 A12 x2 | E4 z8 z16 | %309
w: ter- ra, glo-|ri- a tu- a,|glo- ri- a|tu- a, glo-|ri- a tu-|a,|
w: ||||||
 z8 z4 A4 | B6 G2 A4 B4 | c6 B2 A2 G2 F4 | A8 z4 F4 | B4 G4 B4 c4 | d6 c2 B2 A2 G2 A2 | %315
w: Ho-|san- na in ex-|cel- * * * *|sis, ho-|san- na in ex-|cel- * * * * *|
w: ||||||
 B4 A4 G8 x8 | F6 F2 B8 |"A" x16 |] x2"^Q""^:" x2 x4 |"^Benedictus" F12 C4 | F2 G2 A8 G4 x4 | %321
w: * * sis,|in ex- cel-|||Be- ne-|di * * ctus|
w: ||||||
 A8 B8 x2 | A8 z4 D4 |[M:4/2] A6 c2 B4 A8 | A4 D2 F4 E2 ^C4 | z2 E2 A6"^(  )" c2 B4 x2 | A8 G4 x4 | %327
w: qui ve-|nit in|no- mi- ne Do-|mi- ni Do- mi- ni,|in no- min- e|Do- mi-|
w: ||||||
 F8 z4 F4 | D4"^(  )" C4 F4 G4 | A8 G4 G4 | E4 C4 z4 c4 | B4 G4 A6 B2 | c8 C4 z4 x8 | %333
w: ni. O-|san- na in ex-|cl- sis, O-|san- na, O-|san- na in ex-|cel- sis,|
w: ||||||
 E4 F4 G8 x14 |"^-" x16 |] x2"^Q""^:" x2 x12 |"^Agnus Dei" F12 C4 x4 | F2 G2 A8 G4 | A8 z4 B4 x4 | %339
w: in ex- cel-|||A- gnus|de * * *|i qui|
w: ||||||
 A6 G2 F4 F8 | E4 D4 A4 x8 |[M:4/2] G8 z8 x4 | A4 B4 c6 F2 x2 | B4 A6 G2 A2 F2 x6 | %344
w: tol- lis pec- ca-|ta mun- *|di:|mi- se- re- re|no- * * * *|
w: |||
 * * *||
 A4 G4 F4 D4 x8 | E4 G6 D2 F8 | E4 F8 z4 | F4 A4 c6 G2 | B8 A2 G2"^-" x16- | x8 x8 x2 | z16 x6 | %351
w: * * bis, mi-|se- re- re no|* bis,|mi- se- re- re|no- * * bis.|||
w: |||||||
 z16 x4 | z16 | z16 | z16 x4 | z16 x4 | z16 x4 | z16 | z16 | z16 x2 | z8 A12 x2 | F4 A12 x8 | %362
w: |||||||||A-|gnus De-|
w: |||||||||||
 G2 B2 A4 G2 F2 x8 | E4 F8 E4 | z8 A12 | F4 A6 G2 F4 | G2 B2 A4 G2 F2 E4 x4 | F8 E4 x4 | F8 z8 | %369
w: |* * i,|A-|gnus De * *|* * * * * i,|De- *|i,|
w: |||||||
 z4 B,4 F6 G2 x4 | A4 B8 A4 x4 | G8 F8 | z4 A8 F4 | G4 A4 B8 | A4 c6 G2 B4 x4 | A8 A6 GF x4 | %376
w: qui tol- lis|pec- ca- ta|mun- di:|do- na|no- bis pa-|cem, pa- * *|cem, pa- * *|
w: |||||||
 E8 z4 F8 | E4 G6 D2 F4 | E6 D2 D8 x2 | ^C4 D8 z16 | z4 A8 G4 x8 | c6 A2 B4 A6 x6 | %382
w: cem, do-|na no- bis pa||* cem,|do- na|no- bis pa- *|
w: ||||||
 G2 F2 E2 F4 D4 E4 | A6 F2 G6 F2 x12 | F8 E2 D2 E8 |"F" x16 |] %386
w: * * * * * cem,|do- na no- bis~|~pa\-
 * * *||
w: ||||
V:2
 x2"^Q""^:" x2 ||[K:F][K:treble-8] c12 c4 | c4 c4 d8 | c8 f8 | e4 f4 d6 e2 | %5
w: |Ky- ri|e e- lei-|son. Chri-|ste e- lei- *|
w: |||||
[M:4/2][K:treble-8] f8 e6 f2 | d8 c6 c2 x4 | B4 A8 d8 | ^c2 =B2"^-" x8 x4 | %9
w: son. Ky- ri-|e, Ky- ri-|e e- lei-||
w: ||||
"^Gloria" c2 c2 A2 G2 F2 G2 A2 G2 x2 |[M:4/2] x2"^Q""^:" x2 | c12 c4 | c4 d4 c8 | c4 f6 f2 e4 | %14
w: Glo ri a~ in~ ex cel sis~ De||Et in|ter- ra pax|ho- mi- ni- bus|
w: |||||
[M:4/2][K:treble-8] d4 c4 B4 A4 x4 | G8 F2 c4 A2 | d2 e2 f8 e4 x4 | f8 z4 c4 | d4 B4 A8 | %19
w: bo- næ vo- lun-|ta- tis, bo- næ|vo- lun- ta- *|tis. Lau-|da- mus te,|
w: |||||
 A4 d4 c6 c2 x2 | c8 c4 f8 x2 | e4 d4 d4 c4 | z2 G2 A4 =B4 c4 | A4 G4 z2 G2 | A4"^(  )" B4 c4 A4 | %25
w: be- ne- di- ci-|mus te, ad-|o- ra- mus te,|glo- ri- fi- ca-|mus te, glo-|ri- fi- ca- mus|
w: ||||||
 G2 c4 d4 e2 f8 | e4 f8 z4 | c6 c2 c4 c6 | c2 d8 c8 x2 | c8 x4 | f8 e4 d8 | c4 g6 f2 e4 | %32
w: te, glo- ri- fi- ca-|mus te,|Gra- ti- as a-|gi~- ~mus ti-|bi|pro- pter ma-|gnam glo- ri- am|
w: |||||||
 d8 ^c4 d16 | z4 d6 c2 A4 | B8 A8 | z8 d4 e4 x2 | f6 e2 d2 c2 d2 c2 x6 | B2 A2 G4 c4 A8 | %38
w: tu- * am,|Do- mi- ne|De- us,|rex cæ-|le- * * * * *|* * * stis, rex|
w: ||||||
 A4 f8 x6 | e4 a8 g4 | f4 e4 f4 c6 | B2 A4 G8 z4 | F6 G2 A4 B8 | A4 d4 x8 | G4 B6 B2 A4 | %45
w: cæ- le-|stis, De- us|pa- ter o- mni-|po- * tens.|Do- mi- ne fi-|li u-|ni ge- ni- te,|
w: |||||||
 z4 d4 c4 f6 | f2 e4 f8 c4 | d8 A4 x8 | c8 G4 A6 | B2 A2 G2 F2 E2 D8 x2 | d6 A4 d4 ^c=B | %51
w: u- ni- ge-|ni- te, Je- su|Chri- ste,|Je- su Chri-|* * * * * ste,|Je- su Chri- * *|
w: ||||||
 ^c4"D" x16 | A6 B2 c4 d8 x4 || A4 d4 d4 e8 | ^c8 z4 d6 x2 | c2 f4 e6 f2 e2 x4 | d2 d8 ^c4 d8 | %57
w: |Do- mi- ne De-|us, a- gnus de-|i,
 fi-|li- us pa- * *|* * * tris:|
w: ||||||
 z16 x6 | z4 c4 d4 c2 B2 | d4 c8 A4 x4 | f8 e8 x4 | z8 z4 a8 | g4 f4 e2 e4 f2 x4 | d4 c4 c4 B4 | %64
w: |Qui tol- lis pec-|ca- ta mun-|* di,|mi-|se- re- re no- *|* bis, no- *|
w: |||||||
 A4 c8 x8 | G4 c6 c2 A4 | d8 B4 f8 | e4 z4 f6 c2 | d4 c4 F4 x4 | c6 B2 A4 G4 | F4 B4 A8 | %71
w: * bis:|Qui tol- lis pec-|ca- ta mun-|di, su- sci-|pe de- pre-|ca- ti- o- nem|no- * stram,|
w: |||||||
 f6 e2 A4 d8 | c4 F4 G4 x4 | A4 c4 =B4 c4 | d8 z4 e4 | g8 c4 e8 | a6 a2 g4 x6 | f4 c4 e8 x4 | %78
w: su- sci- pe de-|pre- ca- ti-|o- nem no- *|tram. Qui|se- des ad|dex- te- ram|pa- tris, ad|
w: |||||||
 a6 g2 f4 e4 x4 | d8 ^c4 e8 | d4 ^c4 d4 x12 | ^c8 d8 x2 | d6 d2 G4 A2 d4 | %83
w: dex- te- ram pa-|* tris, mi-|se- re- re|no- bis,|mi- se- re- re no-|
w: |||||
 ^c=B !courtesy!^c4 d8 z4 x2 | f8 e4 c4 x4 | d4 c4 A4 x8 | B8 A4 z2 d2 | c4 A4 B6 B2 | F4 f8 e4 | %89
w: * * * bis.|Quo- ni- am|tu so- lus|san- ctus, tu|so- lus Do- mi-|nus, Do- mi-|
w: ||||||
 f4 z2 f2 e4 c4 | d6 d2 c8 | z8 z4 F4 | c6 c2 d4 f8 | e4 f4 B4 f6 | f2 g4 b6 a2 g2 x6 | %95
w: nus, tu so- lus|Do- mi- nus|tu|so- lus al- tis-|si- mus, tu so-|lus al- tis- si- *|
w: ||||||
 f2 e8 f6 x4 | c2 d4 e4 x6 | f8 z4 f4 | e4 c4 d6 d2 | c8 e4 g6 | f2 e4 d4 c2 c4 | %101
w: * mus, Je-|su~ ~Chri- *|ste: Cum|san- cto spi- ri-|tu in glo-|ri- a De- i pa-|
w: ||||||
 =BA !courtesy!=B4 c4 z4 x2 | z16 x2 | z4 c4 f6 e2 x2 | d4 c8 G4 | c6 B2 A4 B4 x4 | G8 A8 | %107
w: * * * tris,||in glo- ri-|a De- i|pa- * * *|* tris.|
w: ||||||
 z4 F6 G2 A2 B2 x2 | c4 d8 c2 B2 | A4 B6 c2 d2 e2 x8 | f4 d8 c4 x2 |"^-" x16 x2 | %112
w: A- * * *||men. A- * * *|||
w: |||||
"^Credo" c2 A2 F2 B2 A2 A2 G2 F2 x2 x2 |][M:4/2] x2"^Q""^:" x2 x14 | c8 c4 A4 | c4 d4 f8 | %116
w: Cre- do in u- num De * *||Pa- trem o-|mni po- ten-|
w: ||||
 c8 z4 B4 | c4 A4 x8- |[M:4/2][K:treble-8] x4 d4 c4 c8 | B4 c4 A4 G8 | z4 A4 c4 d6 x2 | %121
w: tem, fa-|cto- rem cæ-|li et ter-|* * * ræ,|vi- si- bi-|
w: |||||
 d2 c4 d4 e4 f2 x6 | f4 e2 x10 | d4 c4 B6 B2 x4 | A8 z4 c8 | c4 d4 A4 A4 x4 | B4 A4 B2 c2 d2 e2 | %127
w: li- um o- mni- um,|et in|vi- si- bi- li-|um. Et|in u- num Do-|mi- num Je- * * *|
w: ||||||
 f8 e4 x4 | f4 c4 z4 e6 | e2 f4 c6 B2 A2 | D2 d8 ^c4 x2 | d8 A8 | B8 c8 x4 | A4 d8 ^c4 | d8 z8 | %135
w: * sum|Chri~- ~stum, fi-|li- um De- i u-|ni- ge- ni-|tum. Et|ex pa-|tre na- *|tum.|
w: ||||||||
 z16 x2 | e8 f4 e4 x2 | d8 c8 | z4 A4 c4 G4 | B6 B2 A8 | G8 F4 D6 x2 | E2 F2 G2 A8 z4 x2 | %142
w: |De- um de|De- o,|lu~- ~men de|lu- mi~- ~ne,|De- um~ ~ve-|* * * rum,|
w: |||||||
 f4 e4 c4 x4 | g8 f4 d4 | e4 f8 e4 | f8 c6 B2 | A4 G4 A8 x2 | F4 B6 A2 B2 c2 x2 | d8 G4 B2 c2 | %149
w: de De- o|ve- ro, ve-||ro ge- ni-|tum non fa-|ctum~ ~con- sub~- ~stan~- ~ti-|a- lem pa- *|
w: |||||||
 d2 B2 c8 =B4 x2 | c8 d4 e4 x6 | g6 f2 e4 d8 | c4 d4 G4 A4 | c6 B2 A4 G4 x2 | G4"A" x16 | %155
w: |tri, per~ quem|om ni a fa|cta sunt, per quem|om ni a fa|cta|
w: ||||||
 z4 F8 G4 x4 || A4 B4 c6 A2 x2 | F4 z4 z8 x2 | z4 c4 d4 A4 | c8 B8 | A4 B2 A2 G2 F2 c8 | %161
w: Qui pro-|pter nos ho- mi-|nes,|et pro- pter|no- stram|sa- lu- * * * *|
w: ||||||
 =B4 z4 c4 A8 | F8 B4 f6 | e2 d2 c2 d2 c2 A2 B2 c2 | d2 e2 f2 x10 | g4 f8 e4 | f8 d8 | %167
w: tem, de- scen-|dit de cae-||||lis. Et|
w: * 
 *||||||
 d4 c4 _e4 d8 | c4 d4 A4 x8 | d6 d2 c4 c6 | B2 G4 A8 z4 x2 | B4 c4 d8 x6 | c4 d4 _e8 x4 | %173
w: in- car- na- *|tus est de|spi- ri- tu san-|* * cto,|ex Ma- ri-|a vir- *|
w: ||||
 * *||
 d4 c8 x8 | z4 B4 c8 x4 | A4 B6 A2 F4 x2 | G4 G4 F16 | z8 z8 x4 | c6 B2 A4 F4 | G6 G2 x8 | %180
w: gi ne,|et ho-|mo fa- * *|* ctus est.||Cru- ci- fi- xus|e- ti-|
w: ||||||
 *|
 F4 B4 A8 | D16 | z4 d4 c6 d2 | e4 f4 d8 x4 | ^c8 z4 x4- x4 | x4 c4 B4 f4 x2 | e6 e2 A4 d2 d4 | %187
w: am pro no-|bis,|sub Pon- ti|o Pi- la-|to, pas-|sus et se-|pul- tus est, se- pul-|
w: |||||* * 
||
 ^c=B !courtesy!^c4 d16 |"^(  )" c4 d4 x14 | e4 f4 c4 z4 | z4 c6 c2 =B4 | c8 G8 | z4 c4 =B4 c2 d2 | %193
w: tus * * est.|Et re-|sur- re- xit|ter- ti- a|di- e,|se- cun~- ~dum~ scri-|
w: ||||||
 e8 c8 x8 | z4 f4 d4 e2 f2 | g2 f4 e2 f8 x4 | A6 B2 c4 d2 e2 x4 | f2 g2 a8 g4 | f4 d4 A4 f4 | %199
w: ptu- ras,|se- cun- dum scri-|ptu * * ras.|Et a- scen- dit in|cæ- * * *|lum, se- det ad|
w: ||||||
 e6 e2 c4 x4- | x4 e4 f8 | z4 c4 A4 d4 x4 | c6 c2 F4 d8 | ^c4 d8 x8 | z4 d4"^(  )" c6 d2 | %205
w: dex- te- ram pa-|* tris,|se- det ad|dex- te- ram pa-|* tris.|Et i- te-|
w: ||||||
 B4 c4 d4 c4 | c8 z4 f4 | e6 d2 e4 d6 | c2 c8 =B4 z4 x2 | c4 B4 A4 x4 | d6 c2 A4 =B4 | c8 z4 c6 | %212
w: rum ven- tu- rus|est cum|glo- ri- a, ju-|di- ca- re|vi- vos et|mor- * * tu-|os, cu-|
w: ||
 * * *|||||
 d2 e4 f4 c4 z4 | e4 c4 d4 x10 | e6 c2 f4 d4 | e4 f8 c4 | z2 c2 A4 B4 c6 x2 | G2 B8 A2 G2"A" x8 | %218
w: * jus re- gni|non e- rit|fi- nis, non e-|rit fi- nis,|non e- rit fi-|nis, fi- * *|
w: |* 
 *|||||
 c12 d4 | f6 f2 e4 d8 || c4 B6 B2 A8 | z4 d4 e4 d2 e2 | f8 d8 | z4 f4 x8 | e4 d8 c4 | G4 B4 A8 | %226
w: Et in|Spi- ri~- ~tum~ ~San-|ctum~ ~Do- mi- num,|et vi- vi- fi-|can- tem|qui
|ex pa- tre|fi- li- o-|
w: ||||||||
 D4 d4 c2 d2 e2 f2 | d2 e2 f4 e4 g4 x4 | f2 g2 e2 f2 d8 x4 | e8 z4 e8 | d4 f8 e8 x4 | e4 d8 c4 x4 | %232
w: que pro ce- * * *|* * * dit, pro-|ce- * * * *|dit. Qui|cum pa- tre|et fi- li-|
w: ||||||
 =B8 c8 x4 | A4 B4 c4 d8 | G4 x12 | z4 d4 e4 f4 x4 | d4 e4 f8 | e8 z8 | z4 a8 g4 x4 | c4 f4 e8 x4 | %240
w: o si-|mul ad- o- ra-|tur,|et con- glo\-
|ri- fi- ca-|tur,|qui lo-|cu- tus est|
w: ||||||||
 z4 d8 ^c4 x4 | d6 c2 B4 A4 x4 | G4 d8 ^c4 | d16 | z4 c4 e8 | d8 z4 d6 | e2 f4 c8 x2 | z8 z4 c4 | %248
w: per Pro-|phe- * \-
 *||tas.|Et u-|nam san-|* * ctam|Ca\-
|
w: ||||||||
 B6 A2 G4 c4 | d4 e4 f6 e2 | d4 c2 c4 =BA B4 | c4 e4 d4 c4 x4 | f6 f2 e4 g4 x4 | f4 e4 d8 | %254
w: tho- li- cam et|A- po- sto- li-|cam Ec- cle- si * *|am, et A- po-|sto- li- cam Ec\-
|cle- si- am.|
w: ||||||
 z8 z4 c8 | f6 f2 d4 f8 | e8 c4 f8 | e4 d8 z4 x2 | e4 x16 | d4 c8 d4 | f4 e4 d6 c2 x4 | %261
w: Con-|fi- te- or u-|num bap- ti-|* sma|in|re- mis- si-|o- nem pec- ca-|
w: |||||||
 B6 A2 F2 G2 A8 | G4 A8 x6 | z4 d4 e4 f8 | e4 z4 d6 e2 | f2 g2 a4 g4 d6 | e2 f6 e2 c4 d3 x | %267
w: to- * * * *|* rum.|Et ex- *|cto re- sur-|re- cti- o- nem, mor-|tu- o- * * *|
w: ||||||
 e d2 c2 x4- x9 | x4 =B4 c16 | z8 z4 A4 | c4 d2 e2 f8 | c4 d8 d4 | G8 x8 | F4 B4 B2 c2 d8 | %274
w: * \-
 * *|* rum,|et|vi- tam ven- tu-|ri sæ- cu-|li,|et vi- tam ven- tu-|
w: |||||||
 c4 c6 B2 G4 x2 | A4 G8 x16 | z4 F6 G2 A2 B2 | c4 F4 A4 z2 c2 | d2 e2 f6 c2 d8 | c4"C" x8 x18 |] %280
w: ri sæ- * *|cu- li.|A- * * *|* * men, A|||
w: ||||||
 x2"^Q""^:" x2 x12 | z8 F6 G2 | A2 B2 c8 F4 x4 | A4 d4 c4 f4 x12 |[M:4/2][K:treble-8] e16 | %285
w: |San *|||ctus,|
w: |||||
 g6 f2 e2 d2 c4 x2 | e4 f6 e2 f2 g2 x2 | a4 g8 ^f4 x4 | g16 | d16 x2 | c12 A6 | G2 A2 F2 G8 A16 | %292
w: San- * * * *|||ctus,|San-||* * * * ctus.|
w: |||||||
 d6 d2 c4 B8 | A4 G6 G2 x4 | F4 f6 f2 e4 | d12 c4 | B6 B2"^-" x8 x2 | d12 B8 || G4 d6 f2 e4 x2 | %299
w: Do- mi~- ~nus De-|us Sa- ba-|oth, Do- mi- nus|De- us|Sa- ba-|Ple- ni|sunt cæ- li et|
w: |||||||
 d8 ^c4 d8 | d4 B4 x8 | G2 g4 f2 e2 d2 d8 | ^c4 d8 z4 x6 | c6 f2 e4 x6 | f4 c4 z8 | z4 c6 f2 e4 | %306
w: ter- * ra,|ple- ni|sunt cæ- li et ter *|* ra,|glo- ri- a|tu- a,|glo- ri- a|
w: |||||||
 a6 g2 f2 e2 d4 x2 | ^c8 e4 f8 | d4 e4 f4 x16 | g6 f2 e2 d2 c4 | d4 e4 f4 d4 | c8 z8 | %312
w: tu- * * * *|a, Ho- san-|na in ex-|cel- * * * *||sis,|
w: ||||||
 z4 d4 f4 d4 | g12 a4 | b6 a2 g2 f2 e4 | f2 f4 e2 d2 c2 B2 c2 x8 | d2 e2 f8 e4 |"F" x16 |] %318
w: ho- san- na|in ex-|cel- * * * *|sis, in ex- cel * * *|||
w: ||||||
 x2"^Q""^:" x2 x4 | z16 | z8 c12 | F4 B2 c2 d8 x2 | c4 d4 x4- x4 |[M:4/2][K:treble-8] x4 e4 d8 x4 | %324
w: ||Be-|ne- di * *|ctus qui ve-||
w: ||||||
 c8 z4 c4 | e6 g2 f4 e6 | d2 d6 ^c2 e2 d2 x2 | ^c2 =B2 !courtesy!^c4 d4 z2 d2 | %328
w: nit, in|no- mi- ne Do-|* * mi * *|* * * ni. O-|
w: ||||
"^(  )" B4 A4 d4 e4 | f8 e8 | z4 g4 e4 c4 | d4 e4 f8 | c4 e6 f2 g6 x6 | f2 f8 e4"^-" x16 | %334
w: san- na in ex-|cel- sis,|O- san- na|in ex- cel-|sis, in ex- cel||
w: ||||||
 x2"^Q""^:" x2 x12 |] z16 | z8 c12 | F4 B2 c2 d8 | c4 d8 z8 | z4 f4 x12 | %340
w: ||A-|gnus~~ ~De * *|* i,|qui|
w: ||||||
[M:4/2][K:treble-8] e6 d2 c4 c8 | B4 A8 d8 | c8 z8 x2 | A4 B4 x14 | c6 G2 B4 A4 x8 | G8 F8 x4 | %346
w: tol- lis pec- ca-|ta mun- *|di:|mi- se-|re- re no- *|* bis,|
w: |||
 *|||
 c4 d4 f6 c2 | _e4 d8 c4 | c8 z4 f8 x8 | c4 d12 x2 | c2 B2 A8 x10 | z4 G4 c8 x4 | A4 c4 f8 | %353
w: mi- se- re- re|no- * *|bis. A-|gnus De|* * i,|qui tol-|lis pec- ca-|
w: |||||||
 e4 d8 c4 | B8 A8 x4 | z4 B4 G4 d8 | A4 c6 d2 x8 | B4 A4 z4 c4 | G4 g8 d4 | f6 g2 e4 d6 | %360
w: ta mun- *|* di:|mi- se- re-|re no- *|* bis, mi-|se- re- re|no- * * *|
w: |||||||
 e2 f4 c16 | z8 z16 | z16 x4 | f12 c4 | d12 c2 _e2 x4 | d4 c8 B2 d2 | c4 B2 A2 G8 x4 | %367
w: * * bis.|||A- gnus|De- * *||* * * i,|
w: |||||||
 z4 F4 A6 B2 | c4 d8 c4 | f6 e2 d2 c2 d8 | ^c4 d4 B4 A8 | z4 d8 c4 | d4 e4 f8 | e4 g4 x8 | %374
w: qui tol- lis|pec- ca- ta|mun- * * * *|* * * di:|do- na|no- bis
 pa-|cem, pa-|
w: |||||||
 c4 f4 e4 d8 | ^c4 d8 z8 | z4 d8 c4 x4 | g12 e4 | f6 d2 f4 e6 | d2 c2 B2 x22 | A4 d4 c16 | %381
w: |* cem,|do na|no- bis|pa- * * *||* * cem,|
w: |||||||
 z8 z4 A8 x4 | F4 c8 A4 x2 | B6 A2 G2 F2 G16 |"A" x16 x4 | x16 |] %386
w: do-|na no- bis|pa- * * * *|||
w: 
|||||
V:3
 x2"^Q""^:" x2 ||[K:F][K:bass] F,12 F,4 | E,4 F,4 D,6 E,2 | F,8 F,8 | C4 F,4 G,8 | %5
w: |Ky- ri-|e~ e- lei- *|son.~ Chri-|ste~ e- lei-|
w: |||||
[M:4/2] F,8 A,6 F,2 | G,4 D,4 F,4 E,4 x4 | D,16 x4 |"^-" x8- x8 |[M:4/4] z18 | %10
w: son. Ky- ri-|e e- lei *||son.||
w: |||||
[M:4/2] x2"^Q""^:" x2 | F,12 F,4 | E,4 D,4 F,8 | z4 F,4 C6 C2 |[M:4/2] F,8 z8 x4 | z8 A,6 C2 | %16
w: |Et in|ter- ra pax|ho- mi- ni-|bus|bo- næ|
w: ||||||
 B,4 A,4 G,8 x4 | F,8 z4 F,4 | D,4 G,4 D,8 | z4 D,4 E,4 F,6 | G,2 E,4 F,8 z8 | z4 F,8 E,4 | %22
w: vo- lun- ta-|tis. Lau-|da- mus te,|be- ne- di-|ci- mus te,|ad- o-|
w: ||||||
 D,4 D,4 C,8 | z4 C,4 x4 | F,4 G,4 A,4 F,4 | E,4 F,4 G,4 A,4 x4 | B,4 G,4 F,8 | z4 F,6 F,2 F,4 x2 | %28
w: ra- mus te,|glo-|ri- fi- ca- mus|te, glo- ri- fi-|ca- mus te,|Gra- ti- as|
w: ||||||
 E,6 F,2 D,4 F,8 | E,4 A,4 A,4 | B,4 A,4 G,4 G,4 x4 | A,8 G,8 | A,16 x12 | z4 D,6 E,2 F,4 | %34
w: a- gi~- ~mus ti-|bi pro~- ~pter|ma- gnam glo- ri-|am tu-|am,|Do- mi- ne|
w: ||||||
 G,8 F,8 | z4 D4 E4 F6 | E2 D2 C2 B,2 A,2 G,4 F,8 | z8 D,4 E,4 x4 | F,6 E,2 D,2 C,2 D,6 | %39
w: De- us,|rex cæ- le-|* * * * * * stis,|rex cæ-|le- * * * *|
w: |||||
 E,2 F,2 G,2 x10 | A,8 C6 B,2 x2 | A,4 G,4 F,4 E,4 x2 | F,8 C,8 x4 | z4 D,6 E,2 F,4 | G,8 D,8 | %45
w: |stis, De- us|pa- ter o- mni-|po- tens.|Do- mi- ne|fi- li|
w: ||||||
 z4 G,8 F,4 x2 | B,6 B,2 A,8 x2 | G,8 F,4 A,8 | D,4 F,8 x6 | C,8 z4 C8 | F,4 A,6 G,2 F,2 E,2 | %51
w: u- ni-|ge- ni- te,|Je- su Chri-||ste, Je-|su Chri- * * *|
w: ||||||
 D,6 ^C,2 D,4 A,8 |"B" x16 x8 || z16 x4 | D,6 E,2 F,4 G,8 | E,4 A,4 A,4 B,8 | F,8 z4 G,6 x4 | %57
w: |||Do- mi- ne De-|us, a- gnus
 de-|i, fi-|
w: ||||||
 F,2 B,4 A,8 D,8 | F,8 C8 | B,4 A,4 G,8 x4 | F,8 F,6 E,2 x4 | D,8 C,8 x4 | A,8 G,4 F,8 | %63
w: li- us pa- tris:|Qui tol-|lis pec- ca-|ta mun- *|* di,|mi- se- re-|
w: ||||||
 E,4 D,4 C,2 C4 F,2 | G,4 C,4 E,4 D,8 | C,8 x8 | z4 C,4 F,6 F,2 x4 | D,4 G,8 F,4 | C8"D" x8- | %69
w: re no- bis, mi- se-|* re- re no-|bis:|Qui tol- lis|pec- ca- ta|mun- di,|
w: ||||||
 x4 x4 z8 | z4 C6 F,2 B,4 | A,4 D,4 F,6 E,2 x4 | D,4 C,4 F,4 G,4 | F,4 F,8 E,4 | D,4 C,4 G,4 A,4 | %75
w: |su- sci- pe|de- pre- ca- ti-|o- nem no- *|stram, de- pre-|ca- ti- o- nem|
w: ||||||
 G,8 x12- | x4 z8 z4 x2 | F,4 C8 x8 | F,8 z4 A,8 | D6 D2 C4 B,8 | A,8 z16 | z16 x2 | %82
w: no- stram.||Qui se-|des ad|dex- te- ram pa-|tris,||
w: |||||||
 G,6 F,2 E,4 D,4 x2 | E,8 D,8 x4 | z4 D8 C4 x4 | A,4 B,4 A,4 F,4 x4 | G,8 D,8 | z8 z4 B,4 | %88
w: mi- se- re- re|no- bis.|Quo- ni-|am tu so- lus|san- ctus,|tu|
w: ||||||
 A,4 F,4 G,6 G,2 | F,8 z8 | z4 D,4 A,6 A,2 | B,4 C6 B,2 A,2 G,2 | F,8 z4 F,4 x4 | C6 C2 D4 F6 | %94
w: so- lus Do- mi-|nus,|tu so- lus|al- tis- si- * *|mus, tu|so- lus al- tis-|
w: ||||||
 E2 D2 C2 B,8 G,4 x4 | G,4 C8 F,8 | z4 G,4 x8 | F,4 D,4 F,6 F,2 | C,8 z4 B,4 | A,4 F,4 C6 C2 x2 | %100
w: si- * * mus, Je-|su Chri- ste:|Cum|san- cto spi- ri-|tu, cum|san- cto spi- ri-|
w: ||||||
 G,4 G,8 A,4 | G,8 z4 A,4 | C6 B,2 A,4 G,6 | F,2 F,6 E,D, C,4 F,4 | F,8 E,4 F,4 | %105
w: tu, spi- ri-|tu, in|glo- ri- a De-|i pa- * * * tris,|De- i pa-|
w: |||||
 C,4 D,4 B,,4 C,8 | F,8 x8 | z4 D,6 E,2 F,2 G,2 x2 | A,4 B,8 A,2 G,2 | F,4 G,4 D,8 x8 | %110
w: |tris.|A- * * *||* * men.|
w: |||||
 D,6 E,2"^-" x8- x2 | x16 x2 | z24 |][M:4/2] x2"^Q""^:" x2 x14 | z16 | F,8 F,4 D,4 | E,4 F,4 G,8 | %117
w: A- * men.|||||Pa- trem o-|mni po- ten-|
w: |||||||
 F,8 z4 E,4 |[M:4/2] F,4 D,4 F,12 | G,4 E,4 F,4 C,8 | z4 F,4 A,4 B,6 x2 | B,2 A,4 B,4 C4 F,8 | %122
w: tem, fa-|cto- rem cæ-|li et ter- ræ,|vi- si- bi-|li- um o- mni- um.|
w: |||||
 z16 | z8 z4 F,8 | E,4 D,4 C,4 D,6 x2 | E,2 F,4 G,2 A,2 B,4 A,4 x2 | G,8 x8 | F,8 A,6 A,2 | %128
w: |Et|in u- num Do-|mi~- ~num Je- * * sum|Chri-|stum, fi- li-|
w: ||||||
 G,4 D,8 E,4 x2 | F,4 D,4 A,6 A,2 | D,16 | z16 | z8 A,8 x4 | B,8 C6 C2 | A,8 D6 C2 | %135
w: um De- i|u- ni- ge- ni-|tum,||an-|te om- ni|a sae- *|
w: |||||||
 B,4 B,4 A,8 x2 | z4 D,4 F,4 E,4 x2 | D,8 C,8 | z4 G,4 C4 F,4 | B,6 B,2 A,8 | D8 C4 F,6 x2 | %141
w: * cu- la.|De- um de|De- o,|lu- men de|lu- mi~- ~ne,|De- um ve-|
w: ||
 *||||
 G,2 A,2 B,2 C4 z2 C2 x6 | B,4 G,4 D6 CB, | A,2 G,2 A,2 B,2 C8 | F,8 A,6 G,2 | F,4 C,4 F,8 | %146
w: * * * rum, de|De- o ve- * *||ro, ge- ni-|tum non fa-|
w: |||||
 D,8 z4 G,6 | F,2 G,2 A,2 B,6 A,2 G,4 | F,4 D,8 x4 | z4 A,4 B,4 C6 | B,2 A,4 G,4 G,4 F,8 | %151
w: ctum con-|sub~- ~stan~- ~ti- a- lem pa-|* tri,|per~ ~quem o-|mni~- ~a fa- cta sunt,|
w: |||||
 D,4 E,4 F,6 F,2 x4 | C,8 C,4 C,4 |"D" x16 x2 | z8 z8 x4 | z8 C,8 x4 || D,4 E,4 F,4 G,6 | %157
w: per~ ~quem o- mni~-|~a fa- cta~|||Qui|pro- pter nos ho-|
w: ||||
||
 E,2 C,4 z4 F,4 A,4 | F,4 G,8 x4 | F,8 E,4 F,2 E,2 | D,2 C,2 D,4 C,8 x4 | z4 F,4 D,8 x4 | %162
w: mi- nes, et pro-|pter no-|stram sa- lu *|* * * tem,|de- scen-|
w: ||||
 *|
 B,,8 F,4 B,6 | A,2 F,2 G,2 A,2 B,2 C4 x2 | B,6 A,2 G,8 | F,8 B,8 | B,4 A,4 G,6 F,2 | %167
w: dit de cae-|||lis. Et|in- car- na- *|
w: |||||
 _E,4 E,4 D,8 x4 | z4 D,4 F,6 F,2 x4 | C,4 _E,4 D,8 x2 | z4 G,4 A,4 B,8 | A,4 F,4 G,4 F,8 x2 | %172
w: * tus est|de spi- ri-|tu san- cto,|ex Ma- ri-|a vir- gi- ne,|
w: |||
 * *||
 z4 F,4 x12 | G,8 E,4 F,8 | B,,4 D,8 C,8 | z4 C6 B,2 A,4 x2 | F,4 G,6 F,2 F,8 x4 | E,4 F,8 C,8 | %178
w: et|ho- mo fa-|* ctus est.|Cru- ci- fi-|xus e- ti- am|pro no- bis,|
w: ||||* 
 * *||
 z4 D,4 F,6 G,2 | A,4 B,4 A,8 | D,8 F,8 | C,4 D,8 F,4 | E,6 E,2 D,8 | z8 z4 A,8 | %184
w: sub Pon- ti-|o Pi- la-|to, pas-|sus et se-|pul- tus est,|pas-|
w: |||* * 
|||
 G,4 F,4 B,4 A,6 x2 | A,2 D,8 z4 G,4 | A,4 B,4 x10 | C4 F,4 z4 F,6 x4 | E,2 F,4 D,8 C,8 | %189
w: sus et se- pul-|tus est. Et|re- sur-|re- xit ter-|ti- a di- e,|
w: |* * 
||||
 z4 C,4 x8 | =B,,4 C,2 D,2 E,8 | C,8 z4 A,4 | F,4 G,2 A,2 B,6 A,2 | G,8 F,16 | z8 F,6 G,2 | %195
w: se-|cun~- ~dum~ ~scri~~- ~~ptu-|ras, se-|cun- dum scri- ptu- *|* ras.|Et a-|
w: ||||||
 A,4 B,2 C2 D2 E2 F8 | D4 C8 z8 | z4 C4 A,4 D4 | C6 C2 F,4 B,4 | A,4 F,8 E,2 D,2 | E,8 D,8 | %201
w: scen- dit in cæ * *|* lum,|se- det ad|dex- te- ram pa-||* tris,|
w: ||||||
 z4 B,4 A,6 B,2 x4 | G,4 F,4 D,4 E,4 x4 | F,8 z4 F,4 x4 | C6 =B,2 C4 G,2 A,2 |"^(  )" B,4 C4 G,8 | %206
w: Et i- te-|rum ven- tu- rus|est cum|glo- ri- a, ju- di-|ca- * re|
w: 
 * *|||
 * * * *||
 z4 A,4 G,4 F,4 | D,12 D,4 x2 | C,8 z4 A,8 | G,4 F,8 C,4 | z2 C2 A,4 B,4 x4 | C8 F,4 z4 x2 | %212
w: vi- vos et|mor- tu-|os, cu-|jus re- gni|non e- rit|fi- nis,|
w: ||||* 
 *||
 z4 F,4 D,4 E,4 x2 | F,6 D,2 G,4 C,4 x6 | D,6 E,2"D" x8- | x8 x8 | z8 F,12 | D,4 G,6 G,2 F,4 x6 | %218
w: non e- rit|fi- nis, fi- *|* * nis.||Et|in Spi- ri- tum|
w: ||||||
 A,6 G,2 G,8 | ^F,4 G,8 z4 x4 || G,4 A,4 G,2 F,2 B,8 | F,8 x8 | z8 F,8 | E,4 D,8 C,4 | %224
w: San- ctum~ ~~Do-|mi~- ~num,|et vi- vi- fi- can-|tem|qui|ex pa- tre|
w: ||||
||
 F,4 B,4 A,8 | D,4 A,4 G,2 A,2 B,2 C2 | A,2 B,2 C8 =B,4 | C8 z4 C8 | G,4 F,8 C8 | G,4 B,8 C4 x4 | %230
w: fi- li- o-|que pro ce * * *||dit. Qui|cum pa- tre|et fi- li-|
w: ||||||
 G,8 z16 | F,8 D,4 E,4 x4 | F,4 G,8 D,4 x4 | z4 G,4 A,4 B,4 x4 | G,4 A,4 B,8 | A,8 C12 | %236
w: o|si- mul ad-|o- ra- tur,
|et con- glo-|ri- fi- ca-|tur, qui|
w: ||||||
 D4 C6 B,2 A,2 G,2 | F,4 A,8 x4 | B,6 A,2 G,4 D,4 x4 | G,6 F,2 E,8 x4 | D,8 z4 D,4 x4 | %241
w: lo- cu- tus * *|* est|per Pro~- ~phe\-~ ~tas,|per Pro~- ~phe-|tas. Et|
w: |||||
 F,8 C,8 x4 | z4 G,6 F,2 G,4 | F,8 z4 A,4 | G,6 F,2 E,4 F,4 | B,,6 F,2 C,8 x2 | z16 | %247
w: u- nam|san- * *|ctam Ca-|tho- li cam, Ca-|tho- li- cam,||
w: ||||||
 z4 C,4 F,4 G,4 | A,6 G,2 F,4 E,4 | D,6 D,2 C,8 | F,4 C6 =B,A, B,4 | C8 z4 A,8 | D6 D2 G,4 D8 | %253
w: et A- po-|sto- li- cam Ec-|cle- si- am,
|Ec- cle- si * *|am. Con-|fi- te- or u-|
w: ||||||
 C8 z4 A,4 | C8 B,8 x4 | A,8 x12 | F,8 E,4 D,8 | C,4 G,4 F,4 z4 x2 | D,8 C,4 B,,8 | F,8 x8 | %260
w: num bap-|ti- *|sma|in re- mis-|si- o- nem|pec- ca- to-|rum.|
w: |||||||
 z8 z4 A,4 x4 | B,4 C8 G,4 x4 | z8 z4 G,6 | A,2 B,2 C2 D4 C8 x2 | F,8 A,4 x4 | G,8 C,4 z2 C,2 x2 | %266
w: Et|ex- spe- cto|re-|sur- re- cti- o- nem,|mor- tu\-
|o- rum, et|
w: |||||* * 
|
 E,4 F,2 G,2 A,8 x2 | F,8 A,4 G,4 x2 | F,8 z4 D,4 x8 | F,4 G,2 A,2 B,8 | A,4 G,8 D,4 | %271
w: vi- tam ven- tu-|ri sae- cu-|li, et|vi- tam ven- tu-|ri sæ- cu-|
w: |||||
 F,8 C,6 D,2 | E,4 F,4 C,8 | z8 z4 F,6 x2 | G,2 A,2 B,2 C4 F,4 B,4 | F,8 D,4"D" x16 | %276
w: li, sæ- *|* cu li.|A-|* * * * * men,|A- *|
w: |||||
 x2"^Q""^:" x2 x12 | z16 | F,6 G,2 A,2 B,2 C8 | F,4 A,4 D4 x18 |][M:4/2] C16 | C16 | A,12 F,8 | %283
w: ||San- * * * *||ctus,|San-||
w: |||||||
 G,4 A,8 G,16 | B,6 A,2 G,4 F,4 | E,4 F,6 E,2 F,2 D,2 x2 | C,16 x2 | F,16 x4 | z16 | %289
w: * * ctus,|San- * * *|||ctus.||
w: ||||||
 z4 C6 C2 B,4 x2 | A,6 F,2 A,6 A,2 x2 | D,8 F,4 F,4 x14 | G,6 G,2"^-" x8 x4 | z16 | z16 | z8 A,8 | %296
w: Do- mi- nus|De- us Sa- ba-|oth, De- us|Sa- ba-|||Ple|
w: |||||||
 F,4 D,4 B,8 x2 | B,4 A,4 G,4 F,4 x4 || E,8 z4 D,6 | F,2 E,4 F,4 C,4 x6 | z4 F,6 A,2 G,4 | %301
w: ni sunt cæ|li et ter *|ra, glo-|ri- a tu- a,|glo- ri- a|
w: |||||
 A,4 F,4 z4 A,6 x2 | D2 ^C4 D8 A,8 | z4 A,4 B,8 x2 | G,4 A,4 x8 | B,4 C6 B,2 A,4 | G,8 z4 G,4 x2 | %307
w: tu- a, glo-|ri- a tu- a.|Ho- san-|na in|ex- cel- * *|sis, ho-|
w: ||||||
 A,4 F,4 C4 D4 x4 | F6 E2 D2 C2 B,2 A,2 x12 | G,8 z4 F,4 | B,4 G,4 B,4 C4 | D6 C2 B,2 A,2 G,2 A,2 | %312
w: san- na in ex-|cel- * * * * *|sis, ho-|san- na in ex-|cel- * * * * *|
w: |||||
 B,4 A,4 G,8 |"D" x16 | x2"^Q""^:" x2 x12 | z8 F,16 | C,8 F,2 G,2 A,4 | G,8 F,8 |] B,8 | %319
w: |||Be-|ne- di * *|ctus qui|ve-|
w: |||||||
[M:4/2] A,8 z4 D,4 | A,6 C2 B,4 A,8 | A,4 D,4 C,4 D,6 | F,2 E,8 x6 | A,6 A,2 D,8 x4 | %324
w: nit in|no- mi- ne Do-|mi- ni, [in no-|mi- ne|Do- mi- ni.]|
w: |||||
 z4 F,4 D,4 C,4 | F,4 A,4 C8 x2 | C,16 | z4 C4 A,4 F,4 | A,12 B,4 | C16 |"^-" x16 | %331
w: O- san- na|in ex- cel-|sis,|O san- na|in ex-|cel-||
w: |||||||
 x2"^Q""^:" x2 x12 | z8 F,16 | C,8 F,2 G,2 A,4 x14 | G,8 F,8 |] z4 B,4 A,6 G,2 | F,8 x12 | %337
w: |A-|gnus De * *|* i,|qui tol- lis|pec-|
w: ||||||
[M:4/2] C6 B,2 A,6 G,2 | F,2 A,2 G,4 F,8 x4 | z4 D,4 E,4 F,6 x2 | C,2 _E,4 D,8 x6 | C,8 z8 x4 | %342
w: ca- ta mun- *|* * * di:|mi- se- re-|re no- *|bis,|
w: |||||
 z4 A,4 B,4 C6 | F,2 B,4 F,4 A,4 G,8 | F,24 | z4 F,8 D,4 x4 | F,12 E,2 D,2 | C,8 z4 C,4 | %348
w: mi- se- re-|re no- * * *|bis.|Ag- nus|De- * *|i, qui|
w: ||||||
 F,8 D,4 F,4 x12 | G,8 F,4 A,6 | G,2 G,8 ^F,4 G,8 | z4 G,4 D,4 F,8 | E,4 x12 | D,8 C,8 | %354
w: tol- lis pec-|ca- ta mun-|* * * di|mi- se- re-|re|no- bis,|
w: |||
 * *||
 *|
 z4 C4 G,4 B,8 | A,4 G,8 F,8 | F,8 F,12 | F,4 C12 | B,2 D2 x12 | C4 B,2 A,2 G,8 x2 | F,16 x6 | %361
w: mi- se- re-|re no *|bis, Ag|nus De|||i,|
w: |||||||
 z8 F,12 x4 | E,4 F,8 C,8 | z4 C,4 x8 | D,6 E,2 F,4 A,8 | G,4 F,8 F,4 | D,4 F,8 E,8 | %367
w: Ag-|nus De- i,|qui|tol- lis~ ~pec- ca|ta mun- *|* * di,|
w: ||||||
 z4 D,4 F,6 G,2 | A,4 B,8 A,4 | G,8 F,8 x4 | z8 x12 | z4 A,8 F,4 | G,4 A,4 B,8 | A,4 C6 G,2 B,4 | %374
w: qui tol- lis~|~pec- ca- ta|~mun\-
 di:||do- na|no- bis pa-|cem, pa- * *|
w: ||||
 *|||
 A,8 G,6 F,2 x4 | E,8 z4 D,8 | C,4 G,4 E,4 x8 | F,6 D,2 F,4 E,4 | A,8 D,8 x2 | F,8 D,8 x12 | %380
w: cem, pa- *|cem, do-|na no- bis|pa- * * *|* cem,|pa- *|
w: ||||||
 C,4 F,8 B,,4 x8 | D,4 D,4 C,16 |"D" x16 x2 | x28 | x20 | x16 |] %386
w: cem, do- na|no- bis pa-|||||
w: ||||||

